hornpipes/bobbycaseys.htmlhornpipes/bobbycaseys.htmlhornpipes/bobbycaseys.htmlhornpipes/bobbycaseys.htmlhornpipes/bobbycaseys.htmlhornpipes/bobbycaseys.htmlhornpipes/bobbycaseys.htmlhornpipes/bobbycaseys.htmlhornpipes/bobbycaseys.htmlJerry Holland
hornpipes/bobbycaseys.htmlFrom <I>Solas: Sunny Spells and Scattered Showers</I>
hornpipes/bobbycaseys.htmlhornpipes/bobbycaseys.html<PRE>T:Mom's Jig
T:Mom's Jig
M:6/8
L:1/8
C:Jerry Holland
R:jig
D:Solas: Sunny Spells and Scattered Showers
Z:Devin McCabe
K:ADor
EAA AGA|~B2A A2G|EAA ABc|~B3 BAG|
!EAA AGA|~B2A Aaf|~g3 gfe|dBG BAG:|
!:"*"AaA g2A|fed edB|AaA g2e|dBG BAB|
!AaA g2A|fed edB|ABc Bcd|cde dBG:|
!~E3 ABd|BcA A2D|~E3 ABc|~B3 BAG|
!~E3 ABd|BcA AGF|~G3 GFE|DB,G, B,A,B,|
!A,2A ABd|BcA A2G,|A,2A ABc|~B3 BAB|
!A,2A ABd|BcA Aaf|~g3 " &nbsp; &nbsp; &nbsp; &nbsp; &nbsp; &nbsp; &nbsp; &nbsp; Repeat back to the *"gfe|dBG BAB
||

%  ABC2Win Version 2.1 10/6/2000
hornpipes/bobbycaseys.htmlhornpipes/bobbycaseys.htmlhornpipes/bobbycaseys.htmlhornpipes/bobbycaseys.htmlhornpipes/bobbycaseys.htmlhornpipes/bobbycaseys.htmlhornpipes/bobbycaseys.html